build/img/favicon32.svg

<svg width="24" height="16" viewBox="0 0 24 16" fill="none" xmlns="http://www.w3.org/2000/svg">
<path d="M23.9716 11.0589L21.922 2.62648C21.7793 1.69833 20.8913 0 18.5127 0C18.355 0 18.2037 0.0624176 18.0922 0.173522C17.9807 0.284626 17.918 0.435315 17.918 0.59244C17.918 0.749564 17.9807 0.900254 18.0922 1.01136C18.2037 1.12246 18.355 1.18488 18.5127 1.18488C20.4354 1.18488 20.7208 2.65808 20.7486 2.82001L22.6356 10.6007H21.8071C21.7214 9.92198 21.4892 9.26977 21.1265 8.6889C20.7638 8.10803 20.2792 7.61226 19.706 7.23566C19.5265 7.31095 19.3732 7.43726 19.2653 7.59882C19.1574 7.76038 19.0997 7.95003 19.0994 8.14407C19.1016 8.17827 19.1016 8.21256 19.0994 8.24676C19.5815 8.57615 19.9771 9.01605 20.2531 9.52946C20.529 10.0429 20.6772 10.6148 20.6852 11.1971C20.6828 11.3958 20.6642 11.5939 20.6297 11.7895C20.4999 12.6286 20.073 13.3936 19.4262 13.9463C18.7794 14.499 17.9555 14.8028 17.1034 14.8028C16.2513 14.8028 15.4273 14.499 14.7805 13.9463C14.1338 13.3936 13.7069 12.6286 13.5771 11.7895C13.5425 11.5939 13.524 11.3958 13.5216 11.1971C13.5278 10.6492 13.6564 10.1095 13.8982 9.61727C13.6977 9.60325 13.51 9.51388 13.3731 9.36723C13.2362 9.22059 13.1603 9.02761 13.1608 8.82735C13.1615 8.75562 13.1345 8.68636 13.0855 8.63382C12.7019 9.23006 12.4593 9.90531 12.3759 10.6086H11.6385C11.512 9.44695 10.9593 8.37277 10.0863 7.59235C9.21343 6.81193 8.08191 6.38028 6.90906 6.38028C5.7362 6.38028 4.60469 6.81193 3.73177 7.59235C2.85886 8.37277 2.30609 9.44695 2.17959 10.6086H1.35897L3.24996 2.82001C3.27375 2.65808 3.57108 1.18488 5.48586 1.18488C5.64357 1.18488 5.79482 1.12246 5.90634 1.01136C6.01786 0.900254 6.08051 0.749564 6.08051 0.59244C6.08051 0.435315 6.01786 0.284626 5.90634 0.173522C5.79482 0.0624176 5.64357 0 5.48586 0C3.10725 0 2.21923 1.69833 2.07652 2.62648L0.0229859 11.0589C-0.00241625 11.1447 -0.00683829 11.2353 0.010089 11.3232C0.0270164 11.4111 0.0648017 11.4936 0.120289 11.564C0.175777 11.6344 0.247357 11.6905 0.32905 11.7276C0.410743 11.7648 0.500179 11.782 0.589887 11.7777H2.17563C2.20788 12.022 2.25824 12.2636 2.32627 12.5005C2.35131 12.4572 2.36495 12.4083 2.36591 12.3583C2.36591 12.1488 2.44945 11.9479 2.59814 11.7997C2.74683 11.6516 2.9485 11.5684 3.15878 11.5684C3.22316 11.5692 3.28714 11.5785 3.34907 11.596C3.3318 11.4584 3.32254 11.32 3.32132 11.1813C3.32238 10.9828 3.33962 10.7846 3.37286 10.5889C3.49987 9.74715 3.92582 8.97877 4.5733 8.42343C5.22077 7.86809 6.04677 7.56265 6.90113 7.56265C7.75549 7.56265 8.58149 7.86809 9.22896 8.42343C9.87643 8.97877 10.3024 9.74715 10.4294 10.5889C10.4626 10.7846 10.4799 10.9828 10.4809 11.1813C10.4747 12.1221 10.0968 13.0227 9.42903 13.688C8.76126 14.3532 7.85737 14.7297 6.91302 14.7359C6.14013 14.7465 5.38469 14.5067 4.76038 14.0527C4.61732 14.1765 4.4345 14.2451 4.24502 14.2462C4.16685 14.2472 4.09224 14.2789 4.03733 14.3343C3.98243 14.3898 3.95165 14.4645 3.95165 14.5424C3.95058 14.6529 3.92627 14.7618 3.8803 14.8623C4.72842 15.5626 5.79562 15.9455 6.89716 15.9445C8.06077 15.9495 9.18585 15.5294 10.0596 14.7638C10.9333 13.9981 11.495 12.94 11.6385 11.7895H12.36C12.4906 12.9477 13.0449 14.0172 13.917 14.7939C14.789 15.5706 15.9178 16 17.0875 16C18.2573 16 19.386 15.5706 20.2581 14.7939C21.1301 14.0172 21.6844 12.9477 21.815 11.7895H23.4007C23.4924 11.7961 23.5843 11.7801 23.6682 11.7429C23.7522 11.7057 23.8257 11.6484 23.8821 11.5762C23.9386 11.5039 23.9763 11.4189 23.9919 11.3287C24.0075 11.2385 24.0005 11.1458 23.9716 11.0589Z" fill="black"/>
</svg>

<svg width="24" height="16" fill="none" xmlns="http://www.w3.org/2000/svg"><path d="M23.972 11.059l-2.05-8.433C21.779 1.698 20.892 0 18.512 0a.596.596 0 00-.594.592.591.591 0 00.595.593c1.922 0 2.208 1.473 2.236 1.635l1.887 7.78h-.829a4.728 4.728 0 00-2.101-3.364.99.99 0 00-.607.908.8.8 0 010 .103 3.643 3.643 0 011.586 2.95 3.665 3.665 0 01-.055.593 3.551 3.551 0 01-1.204 2.156 3.576 3.576 0 01-4.645 0 3.552 3.552 0 01-1.204-2.156 3.654 3.654 0 01-.055-.593 3.677 3.677 0 01.376-1.58.794.794 0 01-.737-.79.28.28 0 00-.075-.193 4.665 4.665 0 00-.71 1.975h-.737a4.733 4.733 0 00-1.553-3.017 4.767 4.767 0 00-6.354 0A4.734 4.734 0 002.18 10.61h-.821L3.25 2.82c.024-.162.321-1.635 2.236-1.635A.596.596 0 006.08.592.591.591 0 005.486 0c-2.379 0-3.267 1.698-3.41 2.626L.024 11.06a.559.559 0 00.567.719h1.586c.032.244.082.486.15.723a.295.295 0 00.04-.143.789.789 0 01.983-.762 3.582 3.582 0 01-.028-.415c.001-.198.019-.396.052-.592a3.551 3.551 0 011.2-2.166 3.576 3.576 0 014.656 0 3.551 3.551 0 011.2 2.166c.034.196.05.394.052.592a3.572 3.572 0 01-1.052 2.507 3.599 3.599 0 01-2.516 1.048 3.577 3.577 0 01-2.153-.683.795.795 0 01-.515.193.298.298 0 00-.293.296.787.787 0 01-.072.32 4.732 4.732 0 003.017 1.082 4.768 4.768 0 003.163-1.18 4.734 4.734 0 001.579-2.974h.721a4.734 4.734 0 001.557 3.004 4.767 4.767 0 006.341 0 4.734 4.734 0 001.557-3.005h1.586a.56.56 0 00.59-.46.555.555 0 00-.02-.27z" fill="#000"/></svg>
